src/assets/svg/investment-11.svg

<svg width="33" height="32" viewBox="0 0 33 32" fill="none" xmlns="http://www.w3.org/2000/svg">
<path d="M27.8101 4.68279C24.8047 1.69016 20.7361 0.00998666 16.4949 0.00998666C12.2537 0.00998666 8.18512 1.69016 5.17974 4.68279L2.86702 6.99552V1.43351C2.86702 1.05332 2.71599 0.688699 2.44715 0.419865C2.17832 0.15103 1.8137 0 1.43351 0C1.05332 0 0.688699 0.15103 0.419865 0.419865C0.15103 0.688699 5.45071e-09 1.05332 5.45071e-09 1.43351V10.4933C-3.30613e-05 10.8752 0.150384 11.2419 0.418683 11.5137C0.686983 11.7856 1.05157 11.9409 1.43351 11.9459H10.5124C10.8926 11.9459 11.2572 11.7949 11.526 11.526C11.7949 11.2572 11.9459 10.8926 11.9459 10.5124C11.9459 10.1322 11.7949 9.76758 11.526 9.49875C11.2572 9.22991 10.8926 9.07888 10.5124 9.07888H4.77836L7.20577 6.70882C9.67111 4.24842 13.0119 2.8666 16.4949 2.8666C19.9779 2.8666 23.3187 4.24842 25.784 6.70882C37.6152 19.4957 20.05 37.1183 7.20577 25.2871C6.93698 25.0186 6.57263 24.8678 6.19275 24.8678C5.81287 24.8678 5.44853 25.0186 5.17974 25.2871C5.0445 25.4189 4.93702 25.5764 4.86362 25.7504C4.79023 25.9244 4.75242 26.1113 4.75242 26.3001C4.75242 26.4889 4.79023 26.6758 4.86362 26.8498C4.93702 27.0238 5.0445 27.1813 5.17974 27.3131C8.18071 30.3141 12.2509 32 16.4949 32C20.7389 32 24.8091 30.3141 27.8101 27.3131C30.811 24.3121 32.4969 20.242 32.4969 15.9979C32.4969 11.7539 30.811 7.68376 27.8101 4.68279Z" fill="#00C700"/>
<path d="M16.2466 7.875C15.868 7.87995 15.5062 8.03257 15.2384 8.30034C14.9707 8.56811 14.8181 8.92986 14.8131 9.30851V15.9982C14.8134 16.3783 14.9647 16.7426 15.2336 17.0112L20.0693 21.7322C20.2017 21.8663 20.3594 21.9725 20.5334 22.0447C20.7073 22.1169 20.894 22.1536 21.0823 22.1527C21.334 22.1161 21.5715 22.0131 21.7702 21.8544C21.969 21.6957 22.122 21.4869 22.2134 21.2495C22.3049 21.0122 22.3315 20.7547 22.2906 20.5037C22.2497 20.2526 22.1427 20.017 21.9806 19.8209L17.6228 15.463V9.30851C17.6184 8.93945 17.4738 8.58588 17.2182 8.31963C16.9626 8.05337 16.6152 7.8944 16.2466 7.875Z" fill="#00C700"/>
</svg>

<svg xmlns="http://www.w3.org/2000/svg" width="33" height="32" fill="none"><path fill="#00C700" d="M27.81 4.683a16.036 16.036 0 0 0-22.63 0L2.867 6.996V1.434a1.433 1.433 0 1 0-2.867 0v9.06a1.45 1.45 0 0 0 1.434 1.452h9.078a1.433 1.433 0 1 0 0-2.867H4.778l2.428-2.37a13.15 13.15 0 0 1 18.578 0c11.831 12.787-5.734 30.41-18.578 18.578a1.433 1.433 0 0 0-2.026 0 1.415 1.415 0 0 0 0 2.026 16.002 16.002 0 1 0 22.63-22.63"/><path fill="#00C700" d="M16.247 7.875a1.453 1.453 0 0 0-1.434 1.434v6.69c0 .38.152.744.42 1.012l4.836 4.721a1.4 1.4 0 0 0 1.013.42 1.433 1.433 0 0 0 .899-2.331l-4.358-4.358V9.309a1.453 1.453 0 0 0-1.376-1.434"/></svg>
